svg/file_import_outline.svg

<svg xmlns="http://www.w3.org/2000/svg" viewBox="0 0 24 24"><path d="M14 2H6a2 2 0 0 0-2 2v16c0 1.11.89 2 2 2h12c1.11 0 2-.89 2-2V8zm4 18H6V4h7v5h5zm-3-8.07V19H7.93l2.12-2.12-2.83-2.83 2.83-2.83 2.83 2.83z"/></svg>

<?xml version="1.0" encoding="UTF-8"?><!DOCTYPE svg PUBLIC "-//W3C//DTD SVG 1.1//EN" "http://www.w3.org/Graphics/SVG/1.1/DTD/svg11.dtd"><svg xmlns="http://www.w3.org/2000/svg" xmlns:xlink="http://www.w3.org/1999/xlink" version="1.1" id="mdi-file-import-outline" width="24" height="24" viewBox="0 0 24 24"><path d="M14 2H6C4.89 2 4 2.9 4 4V20C4 21.11 4.89 22 6 22H18C19.11 22 20 21.11 20 20V8L14 2M18 20H6V4H13V9H18V20M15 11.93V19H7.93L10.05 16.88L7.22 14.05L10.05 11.22L12.88 14.05L15 11.93Z" /></svg>
